icons/LED_Bulb.svg

<svg width="16" height="16" viewBox="0 0 16 16" fill="currentColor" xmlns="http://www.w3.org/2000/svg">
<g clip-path="url(#clip0_4_1975)">
<path d="M5.08888 7.78222C5.09777 7.79111 5.10221 7.80444 5.1111 7.81333C5.10221 7.8 5.09777 7.79111 5.08888 7.78222ZM7.9911 13.8889C7.06221 13.8889 5.82221 12.8311 5.82221 12.3467V9.63556C5.82221 9.49778 5.7911 9.39556 5.71555 9.28444C5.66666 9.20889 5.68444 9.10222 5.75999 9.05333C5.83555 9 5.94221 9.02222 5.9911 9.09778C6.10221 9.26667 6.1511 9.43111 6.1511 9.63556V12.3467C6.1511 12.5822 7.1511 13.5556 7.98666 13.5556C8.92444 13.5556 9.90666 12.5511 9.90666 12.3467V9.59111C9.90666 9.42667 9.95999 9.25778 10.0667 9.09778C10.1467 8.95556 10.2889 8.71556 10.4311 8.47556C10.5467 8.28 10.6622 8.08889 10.7467 7.93778H5.1911C5.25777 8.04 5.32444 8.14667 5.38666 8.27556C5.42666 8.35556 5.39555 8.45778 5.3111 8.49778C5.2311 8.53778 5.12888 8.50667 5.08888 8.42222C5.00444 8.25333 4.91555 8.12444 4.8311 7.99556C4.78666 7.95556 4.76888 7.85778 4.80444 7.76889C4.84444 7.67111 4.94666 7.60444 5.05777 7.60444H10.88C10.9911 7.60444 11.0933 7.67111 11.1333 7.76889C11.1644 7.84889 11.1555 7.93333 11.1067 8C11.0133 8.16 10.8711 8.40444 10.7289 8.64444C10.5867 8.88444 10.4489 9.12 10.36 9.27556C10.2844 9.39111 10.2489 9.49333 10.2489 9.59111V12.3467C10.2489 12.8533 9.00444 13.8889 7.9911 13.8889Z" fill="#3D3D3D"/>
<path d="M5.45777 6.24445C5.38222 6.24445 5.31111 6.19111 5.29333 6.11556C5.27111 6.02667 5.32888 5.93778 5.41777 5.91556L10.5289 4.76C10.6222 4.73778 10.7067 4.79556 10.7289 4.88445C10.7467 4.97333 10.6933 5.06222 10.6044 5.08445L5.49333 6.24C5.48444 6.24 5.47111 6.24445 5.45777 6.24445Z" fill="#3D3D3D"/>
<path d="M5.45777 5.08889C5.38221 5.08889 5.31555 5.03556 5.29777 4.96C5.27555 4.87111 5.33332 4.78222 5.42221 4.76L10.5333 3.56C10.6267 3.53778 10.7111 3.59556 10.7333 3.68445C10.7555 3.77333 10.6978 3.86222 10.6089 3.88445L5.49777 5.08445C5.48444 5.08445 5.4711 5.08889 5.45777 5.08889Z" fill="#3D3D3D"/>
<path d="M5.45777 4.06667C5.38221 4.06667 5.31555 4.01333 5.29777 3.93778C5.27555 3.84889 5.33332 3.76 5.42221 3.73778L10.4889 2.53778C10.5822 2.51556 10.6667 2.57333 10.6889 2.66222C10.7111 2.75111 10.6533 2.84 10.5644 2.86222L5.49777 4.06222C5.48444 4.06222 5.4711 4.06667 5.45777 4.06667Z" fill="#3D3D3D"/>
<path d="M5.45777 3.04445C5.38221 3.04445 5.31555 2.99111 5.29777 2.91556C5.27555 2.82667 5.33332 2.73778 5.42221 2.71556L8.08888 2.09333C8.12888 2.08 8.13777 2.06222 8.13777 2.02667V1.80889C8.13777 1.71556 8.21332 1.64 8.30666 1.64C8.39999 1.64 8.47555 1.71556 8.47555 1.80889V2.03111C8.47555 2.20445 8.36888 2.36445 8.20444 2.40445L5.49777 3.04C5.48444 3.04 5.4711 3.04445 5.45777 3.04445Z" fill="#3D3D3D"/>
<path d="M8.96888 7.93333C8.89333 7.93333 8.82666 7.88 8.80888 7.80445C8.79999 7.77333 8.6311 7.02667 9.0711 6.47556C9.36444 6.10222 9.85777 5.91111 10.5289 5.91111C10.6222 5.91111 10.6978 5.98667 10.6978 6.08C10.6978 6.17333 10.6222 6.24889 10.5289 6.24889C9.96444 6.24889 9.56444 6.39556 9.33777 6.68445C8.99999 7.11111 9.13777 7.72889 9.13777 7.73333C9.15999 7.82222 9.10221 7.91111 9.01333 7.93333C8.99555 7.92889 8.98221 7.93333 8.96888 7.93333Z" fill="#3D3D3D"/>
<path d="M7.05777 7.93333C7.04444 7.93333 7.03111 7.93333 7.01777 7.92889C6.92888 7.90667 6.87111 7.81778 6.89333 7.72889C6.89333 7.72445 7.03111 7.10667 6.69333 6.68C6.46222 6.39111 6.06222 6.24445 5.50222 6.24445C5.40888 6.24445 5.33333 6.16889 5.33333 6.07556C5.33333 5.98222 5.40888 5.90667 5.50222 5.90667C6.17333 5.90667 6.66222 6.09778 6.96 6.47111C7.4 7.02667 7.23111 7.76889 7.22222 7.8C7.19999 7.88 7.13333 7.93333 7.05777 7.93333Z" fill="#3D3D3D"/>
<path d="M9.32444 9.97778H6.70221C6.60888 9.97778 6.53333 9.90222 6.53333 9.80889C6.53333 9.71556 6.60888 9.64 6.70221 9.64H9.32444C9.41777 9.64 9.49333 9.71556 9.49333 9.80889C9.49333 9.90222 9.41777 9.97778 9.32444 9.97778Z" fill="#3D3D3D"/>
<path d="M9.32444 12.3333H6.70221C6.60888 12.3333 6.53333 12.2578 6.53333 12.1644C6.53333 12.0711 6.60888 11.9956 6.70221 11.9956H9.32444C9.41777 11.9956 9.49333 12.0711 9.49333 12.1644C9.49333 12.2578 9.41777 12.3333 9.32444 12.3333Z" fill="#3D3D3D"/>
<path d="M9.32444 11.1778H6.70221C6.60888 11.1778 6.53333 11.1022 6.53333 11.0133C6.53333 10.92 6.60888 10.8444 6.70221 10.8444H9.32444C9.41777 10.8444 9.49333 10.92 9.49333 11.0133C9.49333 11.1022 9.41777 11.1778 9.32444 11.1778Z" fill="#3D3D3D"/>
<path d="M7.9911 14.5111C7.68888 14.5111 7.45777 14.4222 7.30222 14.2444C7.0711 13.9822 7.1111 13.6267 7.1111 13.6089C7.12444 13.5156 7.20444 13.4489 7.29777 13.4667C7.3911 13.48 7.45333 13.56 7.44444 13.6533C7.44444 13.6533 7.42222 13.88 7.55555 14.0267C7.64444 14.1244 7.7911 14.1778 7.9911 14.1778C8.1911 14.1778 8.33777 14.1289 8.42666 14.0267C8.55999 13.88 8.53777 13.6533 8.53777 13.6533C8.52888 13.56 8.5911 13.48 8.68444 13.4667C8.77333 13.4578 8.85777 13.52 8.8711 13.6089C8.8711 13.6222 8.91555 13.9778 8.68444 14.2444C8.52444 14.4222 8.29333 14.5111 7.9911 14.5111Z" fill="#3D3D3D"/>
</g>
<defs>
<clipPath id="clip0_4_1975">
<rect width="16" height="16" fill="white"/>
</clipPath>
</defs>
</svg>

<svg xmlns="http://www.w3.org/2000/svg" width="16" height="16" fill="currentColor" class="si si-LED_Bulb" viewBox="0 0 16 16">
  <g clip-path="url(#a)">
    <path d="M5.089 7.782c.009.01.013.022.022.031-.009-.013-.013-.022-.022-.03M7.99 13.89c-.929 0-2.169-1.058-2.169-1.542V9.636a.58.58 0 0 0-.106-.352c-.05-.075-.032-.182.044-.23a.165.165 0 0 1 .231.044c.111.169.16.333.16.538v2.71c0 .236 1 1.21 1.836 1.21.937 0 1.92-1.005 1.92-1.21V9.592a.9.9 0 0 1 .16-.493c.08-.142.222-.382.364-.622.116-.196.231-.387.316-.538H5.19c.067.102.133.209.196.338.04.08.009.182-.076.222a.165.165 0 0 1-.222-.076c-.085-.169-.173-.298-.258-.426-.044-.04-.062-.138-.027-.227a.27.27 0 0 1 .254-.165h5.822c.111 0 .213.067.253.165a.24.24 0 0 1-.026.231l-.378.644c-.142.24-.28.476-.369.632a.6.6 0 0 0-.111.315v2.756c0 .506-1.245 1.542-2.258 1.542M5.458 6.244a.17.17 0 0 1-.165-.128.167.167 0 0 1 .125-.2l5.11-1.156a.165.165 0 0 1 .2.124.17.17 0 0 1-.124.2L5.494 6.24c-.01 0-.023.004-.036.004m0-1.155a.167.167 0 0 1-.036-.329l5.111-1.2a.165.165 0 0 1 .2.124.167.167 0 0 1-.124.2l-5.111 1.2c-.014 0-.027.005-.04.005m0-1.022a.167.167 0 0 1-.036-.329l5.067-1.2a.165.165 0 0 1 .2.124.167.167 0 0 1-.125.2l-5.066 1.2c-.014 0-.027.005-.04.005m0-1.023a.167.167 0 0 1-.036-.329l2.667-.622c.04-.013.049-.03.049-.066v-.218a.169.169 0 1 1 .338 0v.222c0 .173-.107.333-.272.373l-2.706.636z"/>
    <path d="M8.969 7.933a.166.166 0 0 1-.16-.129c-.009-.03-.178-.777.262-1.328.293-.374.787-.565 1.458-.565a.169.169 0 1 1 0 .338c-.565 0-.965.147-1.191.435-.338.427-.2 1.045-.2 1.05a.167.167 0 0 1-.125.2c-.017-.005-.03 0-.044 0m-1.911-.001q-.02.001-.04-.004a.167.167 0 0 1-.125-.2c0-.005.138-.622-.2-1.049-.23-.289-.63-.436-1.19-.436a.169.169 0 1 1 0-.337c.67 0 1.16.19 1.457.564.44.556.271 1.298.262 1.329a.174.174 0 0 1-.164.133m2.266 2.045H6.702a.169.169 0 1 1 0-.338h2.622a.169.169 0 1 1 0 .338m0 2.355H6.702a.169.169 0 1 1 0-.337h2.622a.169.169 0 1 1 0 .337m0-1.155H6.702a.17.17 0 0 1-.169-.165.17.17 0 0 1 .17-.169h2.621a.17.17 0 0 1 .17.17.17.17 0 0 1-.17.164m-1.333 3.333q-.454 0-.689-.267c-.23-.262-.19-.617-.19-.635.012-.093.092-.16.186-.142a.17.17 0 0 1 .146.186s-.022.227.112.374c.088.097.235.15.435.15q.301.002.436-.15c.133-.147.11-.374.11-.374a.17.17 0 0 1 .147-.186.17.17 0 0 1 .187.142c0 .013.045.369-.187.635q-.24.267-.693.267"/>
  </g>
  <defs>
    <clipPath id="a">
      <path d="M0 0h16v16H0z"/>
    </clipPath>
  </defs>
</svg>
